X:1
T:canzone a 2: Cornetto o violino e trombone
T:Canzone a 2: Cornetto o violino e trombone
T:Giulio Belli (c.1560-1622)
T:Edited by Franco Piperno
C:Giulio Belli (c.1560-1622)
%%score [ 1 2 ] { 3 }
L:1/8
Q:1/4=120
M:4/4
K:C
V:1 treble nm="Cornetto\no violino" snm="Corn.\no vl."
V:2 bass nm="Trombone" snm="Tbn."
V:3 treble nm="Organ" snm="Org."
V:1
 d4 d2 d2 | c2 B2 ABcA | B2 GA BcdB | c3 c d4 | G4 z2 G2 | A2 c2 BcdB | edcB A2 d2 | c2 B2 A2 G2 | %8
 A4 B2 d2 | d2 d2 c3 B | ABcA B4 | z2 e2 e2 e2 | d2 c2 BcdB | c2 d2 edcB | A2 d4 c2 | B4 A4 | %16
 z4 G4 | A6 A2 | B2 B2 c3 B | A4 G4 | z2 d2 e2 e2 | c2 c2 dcBA | G2 G2 cBAG | FGAB c2 d2- | %24
 d2 ^c2 d2 A2 | B2 c2 d4 | z4 z2 B2 | c2 d2 e4 | d6 c2- | c2 B2 c2 G2 | A2 B2 c4 | B2 dB c2 A2 | %32
 G4 z2 GE | F2 D2 CDEF | G4 z2 cA | B2 c2 d2 cB | A2 G2 A4 | B2 d2 d3 c | B2 d2 c2 B2 | AB c4 B2 | %40
 c2 e2 e3 d | c2 e2 d2 c2 | B4 A4 | z AAB cccd | e4 d4 | z AAB cccd | e2 c4 B2 | c4 z2 G2 | %48
 A2 G2 z2 d2 | e2 dB c2 B2 | A2 d4 ^c2 |[Q:1/2=160] d8 ||[M:6/2] G12 c4 d8 | e16 c8 | B12 c4 d8 | %55
 e24 | c16 d8 | G24 | A4 B4 c4 B4 c4 A4 | B4 c4 d4 c4 d4 B4 | c12 B4 A8 | G16 ^F8 || %62
[M:4/4][Q:1/4=120] G2 d2 d2 d2 | c3 B ABcA | B2 GA BcdB | c3 c d4 | G4 z2 G2 | A2 c2 BcdB | %68
 edcB A2 d2 | c2 B2 A2 G2 | A4 B2 d2 | d2 d2 c3 B | ABcA B4 | z2 e2 e2 e2 | d2 c2 BcdB | %75
 c2 d2 edcB | A2 d4 c2 | B4 A4 | z4 G4 | A6 A2 | B2 B2 c3 B | A4 G4 | z2 d2 e2 e2 | c2 c2 dcBA | %84
 G2 G2 cBAG | FGAB c2 d2- | d2 ^c2 d2 A2 | B2 c2 d4 | z4 z2 B2 | c2 d2 e4 | d6 c2- | c2 B2 c2 G2 | %92
 A2 B2 c4 | c2 dB c2 A2 | G4 z2 GE | F2 D2 CDEF | G4 z2 cA | B2 c2 d2 cB | A2 G2 A4 | B4 e4- | %100
 e2 d2 c4 | B8 |] %102
V:2
 z8 | z8 | G,4 G,2 G,2 | F,2 E,2 D,E,F,D, | E,2 C,D, E,F,G,E, | D,3 D, G,4 | C,4 F,2 D,2 | %7
 A,2 G,2 ^F,2 G,2 | D,4 G,,4 | z4 z2 A,2 | A,2 A,2 G,3 F, | E,2 C,3 D,E,F, | G,2 A,2 G,4 | z4 C,4 | %14
 D,6 D,2 | E,2 E,2 F,4 | D,4 C,3 B,, | A,,8 | G,,2 G,2 A,2 A,2 | F,2 F,2 G,F,E,D, | %20
 C,2 B,,2 A,,4- | A,,2 A,,2 G,,3 D, | E,2 E,2 C,2 C,2 | D,E,F,G, A,2 F,2 | G,2 A,2 D,4 | %25
 z4 z2 D,2 | E,2 F,2 G,4 | z4 z2 E,2 | F,2 G,2 A,4 | G,4 z2 E,2 | F,2 G,2 A,4 | G,4 z2 F,D, | %32
 E,2 C,2 G,2 E,2 | D,4 A,4 | z2 G,E, F,2 A,2 | G,2 E,2 D,3 E, | ^F,2 G,2 D,4 | G,,4 z2 G,2 | %38
 G,3 F, E,2 G,2 | F,2 E,2 D,4 | C,2 C2 C3 B, | A,2 C2 G,2 A,2 | E,4 A,,A,A,B, | CF,F,G, A,4 | %44
 z E,E,F, G,D,D,E, | F,F,F,G, A,4 | E,3 F, G,4 | z2 C,2 D,2 C,2 | z2 G,2 A,2 G,2 | %49
 z2 G,2 A,2 G,E, | F,2 D,2 A,4 | D,8 ||[M:6/2] G,12 A,4 B,8 | B,16 A,8 | G,24 | C,12 D,4 E,8 | %56
 F,16 D,8 | C,24 | F,16 F,8 | G,16 G,8 | A,12 G,4 F,8 | G,8 D,16 ||[M:4/4] G,,8 | z8 | %64
 G,4 G,2 G,2 | F,2 E,2 D,E,F,D, | E,2 C,D, E,F,G,E, | F,3 F, G,4 | C,4 F,2 D,2 | A,2 G,2 ^F,2 G,2 | %70
 D,4 G,,4 | z4 z2 A,2 | A,2 A,2 G,3 F, | E,2 C,3 D,E,F, | G,2 A,2 G,4 | z4 C,4 | D,6 D,2 | %77
 E,2 E,2 F,4 | D,4 C,3 B,, | A,,8 | G,,2 G,2 A,2 A,2 | F,2 F,2 G,F,E,D, | C,2 B,,2 A,,4- | %83
 A,,2 A,,2 G,,3 D, | E,2 E,2 C,2 C,2 | D,E,F,G, A,2 F,2 | G,2 A,2 D,4 | z4 z2 D,2 | E,2 F,2 G,4 | %89
 z4 z2 E,2 | F,2 G,2 A,4 | G,4 z2 E,2 | F,2 G,2 A,4 | G,4 z2 F,D, | E,2 C,2 G,2 E,2 | D,4 A,4 | %96
 z2 G,E, F,2 A,2 | G,2 E,2 D,3 E, | !courtesy!^F,2 G,2 D,4 | G,,4 C,4- | C,2 B,,2 C,4 | G,,8 |] %102
V:3
 d4 d2 d2 | c2 B2 ABcA |[K:bass] G,4 G,2 G,2 | F,2 E,2 D,E,F,D, | E,2 C,D, E,F,G,E, | F,3 F, G,4 | %6
 C,4 F,2 D,2 | A,2 G,2 ^F,2 G,2 | D,4 G,,4 | G,4 A,2 A,2 | A,2 A,2 G,3 F, | E,2 C,3 D,E,F, | %12
 G,2 A,2 G,4 | C,4 C,4 | D,8 | E,4 F,4 | D,4 C,3 B,, | A,,8 | G,,2 G,2 A,4 | F,4 G,F,E,D, | %20
 C,2 B,,2 A,,4- | A,,2 A,,2 G,,3 D, | E,2 E,2 C,4 | D,E,F,G, A,2 F,2 | G,2 A,2 D,4 | %25
 G,2 A,2 G,2 D,2 | E,2 F,2 G,4 | A,2 G,2 C,2 E,2 | F,2 G,2 A,4 | G,4 C,2 E,2 | F,2 G,2 A,4 | %31
 G,4 C,2 F,D, | E,2 C,2 G,2 E,2 | D,4 A,4 | G,3 E, F,2 A,2 | G,2 E,2 D,3 E, | ^F,2 G,2 D,4 | %37
 G,,4 G,4 | G,3 F, E,2 G,2 | F,2 E,2 D,4 | C,2 C2 C3 B, | A,2 C2 G,2 A,2 | E,4 A,3 B, | %43
 CF,F,G, A,4 | E,3 F, G,D,D,E, | F,3 G, A,4 | E,3 F, G,4 | C,4 D,2 C,2 | F,2 G,2 A,2 G,2 | %49
 C,2 G,2 A,2 G,E, | F,2 D,2 A,4 | D,8 ||[M:6/2] G,12 A,4 B,8 | B,16 A,8 | G,24 | C,12 D,4 E,8 | %56
 F,16 D,8 | C,24 | F,16 F,8 | G,16 G,8 | A,12 G,4 F,8 | G,8 D,16 ||[M:4/4] G,,8 | A,,2 G,,2 A,,4 | %64
 G,,2 G,2 G,2 G,2 | F,2 E,2 D,E,F,D, | E,2 C,D, E,F,G,E, | F,3 F, G,4 | C,4 F,2 D,2 | %69
 A,2 G,2 ^F,2 G,2 | D,4 G,,4 | G,4 A,4 | A,2 A,2 G,3 F, | E,2 C,3 D,E,F, | G,2 A,2 G,4 | C,4 C,4 | %76
 D,8 | E,4 F,4 | D,4 C,3 B,, | A,,8 | G,,2 G,2 A,4 | F,4 G,F,E,D, | C,2 B,,2 A,,4- | %83
 A,,2 A,,2 G,,3 D, | E,4 C,4 | D,E,F,G, A,2 F,2 | G,2 A,2 D,4 | G,2 A,2 G,2 D,2 | E,2 F,2 G,4 | %89
 A,2 G,2 C,2 E,2 | F,2 G,2 A,4 | G,4 z2 E,2 | F,2 G,2 A,4 | G,4 z2 F,D, | E,2 C,2 G,2 E,2 | %95
 D,4 A,4 | G,3 E, F,2 A,2 | G,2 E,2 D,3 E, | !courtesy!^F,2 G,2 D,4 | G,,4 C,4- | C,2 B,,2 C,4 | %101
 G,,8 |] %102

